!! 00000] TT[WS
!!!OTL: Fang yang
!!!ARE: Asia, China, Shanxi Dingxiang
!! Ethnic Group: Han
!! WI, 52 (1)
!!!SCT: J0055
!!!YEM: Copyright 1995, estate of Helmut Schaffrath.
**kern
*ICvox
*Ivox
!! Mixed meters:  2/4; 1/4
*M1/4
*k[f#c#]
*D:
{8dd
16ee
16ff#
4ee
=1
8b
16dd
16b
4a
=2
8b
16b
16dd
8a
16b
16f#
=3
2e}
=4
{4d
=5
*M2/4
8a
16b
16f#
4e
=6
8a
16a
16b
4dd
=7
8a
16dd
16b
8a
16b
16f#
=8
2a}
==
!!!AGN: Xiaodiao. Laodong, Fangyang
!!!ONB: ESAC (Essen Associative Code) Database: CHINA
!!!AMT: irregular
!!!AIN: vox
!!!EED: Helmut Schaffrath
!!!EEV: 1.0
*-
